X: 2
T: Lexie MacAskill
R: reel
M: 4/4
L: 1/8
K: Edor
eA~A2 deed|e2dB GABd|eA~A2 deed|egfd e2Bd|eA~A2 deed|e2dB GABd|eA~A2 deed|egfd e2ef|| etc?


Tune 1093	Setting 26675

